X:3244
T:Come Haste to the Wedding. GS.039
T:Haste to the Wedding. GS.039
M:6/8
L:1/8
Q:110
S:George Spencer m/s, Leeds,1831
R:Jig
O:England
A:Leeds
N:The words "get this off" are written at the top of the music.  An
H:1831
Z:vmp.Cherri Graebe
K:D major
A | AFA Aaf | ede fdB | AFA AdF | EEE E2 A | AFG Aaf |! ede fdB | AFG Aa
f | dddd2 :||:
a | afa afa | bgb bgb |! afb agf | eee e3 | a3 f3 | ede fdB | AFA  faf |
 ddd d2 :||


